X:36
T:Black Joke. JGi.036, The
M:6/8
L:1/8
Q:3/8=110
B:Joshua Gibbons MS,1823,Tealby,Lincs.
N:Bar 5 in B section omitted as probable error. MS reads B2BB2ABA - eight beats.
Z:Village Music Project, R.Greig, 2009
K:G
D2G GFG|A2A AGA|B2B BAG|A2A AGF|G3E3|DEF G3:|
|:B2cd2d|efg d2c|B2cd2d|efg d2c|B2B BAG|A2A AGF|G3E3|DEF G2:|

